X: 154
T:Last May a Braw Wooer
G:song
B:Gall & Inglis, Select Songs of Scotland
M:6/8
L:1/8
K:F
% almost lydian/major hexatonic
F|A>GA F>GF|A>GA F2 c/B/ |A>GA FAc|d3   c2c|
  c>de fed |c<fA G2(F/G/)|A2C  CDE|F>GA GFG|AcC C>FA|G3 F2|]

On the pipes it is theoretically possible as the D-mode using the
G-gap hexatonic pitch set, but I can't think of an example.  When
the G is omitted in a D-mode tune on the pipes, the C is too, to
make the tune pentatonic.  The first half of this tune is in this
mode, but the Gs in the second part fill in the gap:

